catalog/view/theme/avclub/images/logo.svg

<svg width="786" height="360" viewBox="0 0 786 360" fill="none" xmlns="http://www.w3.org/2000/svg"><path fill="#B21A1A" d="M0 0h786v360H0z"/><path d="M540.119 220.765h-22.561a17.658 17.658 0 0 1-6.936-1.328 17.794 17.794 0 0 1-5.881-3.944 17.982 17.982 0 0 1-3.904-5.943 18.125 18.125 0 0 1-1.314-7.007v-72.887h-20.285v72.887c0 22.762 15.79 38.713 38.32 38.713h42.844v-111.6h-20.283v91.109zM443.725 84l-20.291 6.279v150.976h20.291V84zm-285.078 45.656H114l6.08 20.291h44.647l-6.08-20.291zm42.599 0h-21.293l34.043 111.6h23.191l34.075-111.6h-21.324l-24.33 79.728-24.362-79.728zm-52.775 111.595h46.693l-6.268-21.303h-40.425c-3.653 0-7.156-1.496-9.739-4.161-2.583-2.664-4.034-6.278-4.034-10.045 0-3.768 1.451-7.382 4.034-10.046 2.583-2.664 6.086-4.161 9.739-4.161h32.277l-6.267-21.303h-26.01c-20.651 0-34.471 14.224-34.471 35.558s13.757 35.461 34.471 35.461z" fill="#fff"/><path fill-rule="evenodd" clip-rule="evenodd" d="M590.848 90.342L611.716 84v43.412h20.869c23.181 0 39.426 16.268 39.426 39.48v34.882c0 23.213-16.212 39.481-39.426 39.481h-41.737V90.342zm59.465 119.345a17.525 17.525 0 0 0 1.389-7.047l-.066-34.366a17.435 17.435 0 0 0-1.38-7.052 18.057 18.057 0 0 0-4.128-5.981 18.881 18.881 0 0 0-6.223-3.966 19.51 19.51 0 0 0-7.339-1.326h-21.445v71.015h21.51a19.49 19.49 0 0 0 7.334-1.335 18.946 18.946 0 0 0 6.22-3.966 18.117 18.117 0 0 0 4.128-5.976z" fill="#fff"/><path d="M321.984 198.888c0 25.198 17.379 42.361 42.893 42.361 31.306 0 38.271-24.041 38.271-24.041l-19.784-5.846a22.127 22.127 0 0 1-11.038 8.403 22.42 22.42 0 0 1-13.933.234 22.147 22.147 0 0 1-11.32-8.028 21.7 21.7 0 0 1-4.228-13.114v-32.014a21.702 21.702 0 0 1 4.228-13.114 22.147 22.147 0 0 1 11.32-8.028 22.42 22.42 0 0 1 13.933.234 22.127 22.127 0 0 1 11.038 8.403l19.784-5.846s-6.869-23.916-38.271-23.916c-25.578 0-42.893 17.07-42.893 42.267v32.045z" fill="#fff"/></svg>

<svg width="786" height="360" viewBox="0 0 786 360" fill="none" xmlns="http://www.w3.org/2000/svg">
<rect width="786" height="360" fill="#B21A1A"/>
<path d="M540.119 220.765H517.558C515.182 220.794 512.824 220.343 510.622 219.437C508.421 218.532 506.421 217.191 504.741 215.493C503.059 213.795 501.732 211.774 500.837 209.55C499.94 207.327 499.493 204.944 499.523 202.543V129.656H479.238V202.543C479.238 225.305 495.028 241.256 517.558 241.256H560.402V129.656H540.119V220.765Z" fill="white"/>
<path d="M443.725 84L423.434 90.2788V241.255H443.725V84Z" fill="white"/>
<path d="M158.647 129.656H114L120.08 149.947H164.727L158.647 129.656Z" fill="white"/>
<path d="M201.246 129.656H179.953L213.996 241.256H237.187L271.262 129.656H249.938L225.608 209.384L201.246 129.656Z" fill="white"/>
<path d="M148.471 241.251H195.164L188.896 219.948H148.471C144.818 219.948 141.315 218.452 138.732 215.787C136.149 213.123 134.698 209.509 134.698 205.742C134.698 201.974 136.149 198.36 138.732 195.696C141.315 193.032 144.818 191.535 148.471 191.535H180.748L174.481 170.232H148.471C127.82 170.232 114 184.456 114 205.79C114 227.124 127.757 241.251 148.471 241.251Z" fill="white"/>
<path fill-rule="evenodd" clip-rule="evenodd" d="M590.848 90.3422L611.716 84V127.412H632.585C655.766 127.412 672.011 143.68 672.011 166.892V201.774C672.011 224.987 655.799 241.255 632.585 241.255H590.848V90.3422ZM650.313 209.687C651.259 207.45 651.732 205.054 651.702 202.64L651.636 168.274C651.671 165.858 651.203 163.46 650.256 161.222C649.309 158.983 647.906 156.95 646.128 155.241C644.352 153.533 642.235 152.185 639.905 151.275C637.577 150.367 635.08 149.916 632.566 149.949H611.121V220.964H632.631C635.144 220.994 637.639 220.54 639.965 219.629C642.292 218.719 644.406 217.37 646.185 215.663C647.961 213.955 649.364 211.923 650.313 209.687Z" fill="white"/>
<path d="M321.984 198.888C321.984 224.086 339.363 241.249 364.877 241.249C396.183 241.249 403.148 217.208 403.148 217.208L383.364 211.362C380.696 215.262 376.825 218.209 372.326 219.765C367.829 221.321 362.942 221.403 358.393 219.999C353.843 218.595 349.874 215.78 347.073 211.971C344.273 208.163 342.789 203.563 342.845 198.857V166.843C342.789 162.137 344.273 157.538 347.073 153.729C349.874 149.92 353.843 147.105 358.393 145.701C362.942 144.297 367.829 144.379 372.326 145.935C376.825 147.491 380.696 150.438 383.364 154.338L403.148 148.492C403.148 148.492 396.279 124.576 364.877 124.576C339.299 124.576 321.984 141.646 321.984 166.843V198.888Z" fill="white"/>
</svg>
